packages/astro-components-stencil/src/icons/money.svg

<svg xmlns="http://www.w3.org/2000/svg" viewBox="0 0 24 24"><g xmlns="http://www.w3.org/2000/svg" id="money" fill-rule="nonzero">
            <path d="M15 16h3c.55 0 1-.45 1-1V9c0-.55-.45-1-1-1h-3c-.55 0-1 .45-1 1v6c0 .55.45 1 1 1zm1-6h1v4h-1v-4zm-7 6h3c.55 0 1-.45 1-1V9c0-.55-.45-1-1-1H9c-.55 0-1 .45-1 1v6c0 .55.45 1 1 1zm1-6h1v4h-1v-4zM6 8c-.55 0-1 .45-1 1v6c0 .55.45 1 1 1s1-.45 1-1V9c0-.55-.45-1-1-1zM2 6v12c0 1.1.9 2 2 2h16c1.1 0 2-.9 2-2V6c0-1.1-.9-2-2-2H4c-1.1 0-2 .9-2 2zm17 12H5c-.55 0-1-.45-1-1V7c0-.55.45-1 1-1h14c.55 0 1 .45 1 1v10c0 .55-.45 1-1 1z"/>
        </g></svg>

<svg width="24" height="24" viewBox="0 0 24 24" fill="none" xmlns="http://www.w3.org/2000/svg">
<path fill-rule="evenodd" clip-rule="evenodd" d="M2 6V18C2 19.1 2.9 20 4 20H20C21.1 20 22 19.1 22 18V6C22 4.9 21.1 4 20 4H4C2.9 4 2 4.9 2 6ZM5 9C5 8.45 5.45 8 6 8C6.55 8 7 8.45 7 9V15C7 15.55 6.55 16 6 16C5.45 16 5 15.55 5 15V9ZM12 16H9C8.45 16 8 15.55 8 15V9C8 8.45 8.45 8 9 8H12C12.55 8 13 8.45 13 9V15C13 15.55 12.55 16 12 16ZM15 16H18C18.55 16 19 15.55 19 15V9C19 8.45 18.55 8 18 8H15C14.45 8 14 8.45 14 9V15C14 15.55 14.45 16 15 16ZM16 10H17V14H16V10ZM10 10H11V14H10V10ZM5 18H19C19.55 18 20 17.55 20 17V7C20 6.45 19.55 6 19 6H5C4.45 6 4 6.45 4 7V17C4 17.55 4.45 18 5 18Z" fill="black"/>
</svg>
